img/vector-1.svg

<svg fill="none" height="32" viewBox="0 0 102 32" width="102" xmlns="http://www.w3.org/2000/svg"><path d="m28.1055 28.3587-25.50057-16.4332c-2.269947-1.4628-2.473584-4.71153-.40379-6.44194 1.08261-.90511 2.56207-1.17013 3.89218-.69722l30.53498 10.85656c3.3485 1.1905 7.0107 1.1368 10.3198-.1515l37.6998-14.677163c2.3223-.9041185 4.9441-.576842 6.9771.870953l10.236 7.28925-53.5055 21.34956c-6.6664 2.66-14.2084 1.928-20.25-1.9653z" fill="#0d06c1"/></svg>

<svg width="102" height="32" viewBox="0 0 102 32" fill="none" xmlns="http://www.w3.org/2000/svg">
<path d="M28.1055 28.3587L2.60493 11.9255C0.334983 10.4627 0.131346 7.21397 2.20114 5.48356C3.28375 4.57845 4.76321 4.31343 6.09332 4.78634L36.6283 15.6429C39.9768 16.8334 43.639 16.7797 46.9481 15.4914L84.6479 0.814237C86.9702 -0.0898815 89.592 0.237395 91.625 1.68519L101.861 8.97444L48.3555 30.324C41.6891 32.984 34.1471 32.252 28.1055 28.3587Z" fill="#0D06C1"/>
</svg>
